!!!OTL: DIE FRAU SIE WOLLT ZUM REIGEN GEHN
!!!ARE: Europa, Mitteleuropa, Deutschland, Nord - Deutschland
!!!SCT: Z0166
!!!YEM: Copyright 1995, estate of Helmut Schaffrath.
**kern
*ICvox
*Ivox
*M2/4
*k[f#c#g#]
*A:
{8e
=1
8a
8a
8.a
16a
=2
8a
16g#
16f#
8e
8r}
=3
{4a
8ee
8ee
=4
4cc#
8r}
{8cc#
=5
8b
8cc#
8dd
8b
=6
8cc#
8dd
8ee
8r}
=7
{8a
16a
16a
8a
8g#
=8
8f#
8e
8e}
{8cc#
=9
8b
8cc#
8dd
8b
=10
8cc#
8dd
8ee
8r}
=11
{8.a
16a
8g#
8f#
=12
4e
8r}
==
!!!AGN: Erzaehlung, lustige Romanze
!!!ONB: ESAC (Essen Associative Code) Database: ZUCCAL
!!!AMT: simple duple
!!!AIN: vox
!!!EED: Helmut Schaffrath
!!!EEV: 1.0
*-
